dist/img/partners/logo-4.svg

<svg width="106" height="26" viewBox="0 0 106 26" fill="none" xmlns="http://www.w3.org/2000/svg">
<path d="M96.7535 17.8448C92.0941 17.8448 88.3033 14.0593 88.3033 9.40647V0.96814H105.203V9.40647C105.203 14.0588 101.412 17.8448 96.7535 17.8448ZM89.8395 2.50238V9.40647C89.8395 13.2129 92.9407 16.3106 96.7535 16.3106C100.565 16.3106 103.667 13.2134 103.667 9.40647V2.50238H89.8395Z" fill="white"/>
<path d="M100.594 6.08215H92.9126V7.6164H93.9625L93.4308 11.8678H94.9791L95.5116 7.6164H97.9953L98.5278 11.8678H100.076L99.5444 7.6164H100.594V6.08215Z" fill="white"/>
<path d="M9.67425 3.50363C14.2069 3.50363 16.6246 5.61577 16.6246 8.63312C16.6246 11.0475 14.8112 12.8579 12.394 13.5222V13.5826C16.1713 14.518 17.531 16.7206 17.531 19.0445C17.531 22.3636 15.1134 24.6271 10.5812 24.6271H0.609375V24.0236C2.42275 24.0236 2.42275 24.0236 2.42275 22.0618V6.06837C2.42275 4.10658 2.42275 4.10658 0.609375 4.10658V3.50311H9.67425V3.50363ZM7.86136 13.4614C10.5812 13.4614 11.6381 11.651 11.6381 8.78395C11.6381 6.21873 10.5806 4.10658 8.76779 4.10658H7.25707V13.4614H7.86136ZM7.25707 14.0649V24.0236H9.3721C11.7892 24.0236 12.5451 21.6093 12.5451 18.8937C12.5451 16.178 11.1855 14.0654 8.46564 14.0654H7.25707V14.0649Z" fill="white"/>
<path d="M18.7375 17.2338C18.7375 12.1038 22.9681 9.23679 26.7449 9.23679C30.2201 9.23679 33.3624 10.7454 32.4559 15.8754H23.512C23.512 19.9494 25.8385 21.458 28.105 21.458C30.8248 21.458 32.0335 19.9494 32.6378 18.8928H32.9398C32.3356 21.9101 30.2201 24.928 26.4433 24.928C21.4574 24.9285 18.7375 21.3077 18.7375 17.2338ZM23.512 15.2719H27.954C28.4676 13.2202 28.8906 9.8402 26.5943 9.8402C24.8716 9.8402 23.6328 11.4399 23.512 15.2719Z" fill="white"/>
<path d="M45.3273 13.4614C45.3273 12.1036 44.4208 11.651 43.5144 11.651C42.5778 11.651 41.5505 12.1036 40.493 13.0088V22.0613C40.493 24.0231 40.493 24.0231 42.3058 24.0231V24.6266H33.8448V24.0231C35.6576 24.0231 35.6576 24.0231 35.6576 22.0613V12.5562C35.6576 11.0475 35.6576 11.0475 34.1469 11.0475V10.5949L40.3414 9.23706H40.5831L40.4924 12.4053H40.5529C41.7011 10.444 43.877 9.23706 46.0826 9.23706C48.107 9.23706 50.1621 10.444 50.1621 13.7637V22.0624C50.1621 24.0241 50.1621 24.0241 51.9749 24.0241V24.6276H44.1187V24.0241C45.3273 24.0241 45.3273 24.0241 45.3273 22.0624V13.4614Z" fill="white"/>
<path d="M61.9447 21.4585C64.6645 21.4585 65.8731 19.9499 66.4774 18.8933H66.78C66.1752 21.9107 64.0602 24.9285 60.2829 24.9285C55.297 24.9285 52.5777 21.3077 52.5777 17.2338C52.5777 12.1038 56.8083 9.23679 60.5851 9.23679C64.3624 9.23679 66.357 11.0778 66.357 13.0089C66.357 14.0645 65.8736 15.1211 64.0607 15.1211C62.55 15.1211 62.2171 14.1857 62.2473 13.5521C62.399 11.3489 62.2473 9.8402 60.4345 9.8402C58.3195 9.8402 57.3521 12.6469 57.3521 16.147C57.3521 20.1007 59.6786 21.4585 61.9447 21.4585Z" fill="white"/>
<path d="M79.1675 13.4613C79.1675 12.1035 78.261 11.651 77.3544 11.651C76.4177 11.651 75.3904 12.1035 74.3329 13.0088V22.0613C74.3329 24.0231 74.3329 24.0231 76.1463 24.0231V24.6266H67.6852V24.0231C69.4985 24.0231 69.4985 24.0231 69.4985 22.0613V4.71055C69.4985 3.20137 69.4985 3.20137 67.9879 3.20137V2.74876L74.0917 1.39096H74.3334V12.4053H74.3938C75.542 10.444 77.717 9.23709 79.9238 9.23709C81.9485 9.23709 84.0028 10.444 84.0028 13.7636V22.0623C84.0028 24.0241 84.0028 24.0241 85.8167 24.0241V24.6276H77.959V24.0241C79.1675 24.0241 79.1675 24.0241 79.1675 22.0623V13.4613Z" fill="white"/>
</svg>

<svg width="106" height="26" fill="none" xmlns="http://www.w3.org/2000/svg"><g clip-path="url(#clip0_2:256)" opacity=".3" fill="#fff"><path d="M96.754 17.845c-4.66 0-8.45-3.786-8.45-8.439V.968h16.899v8.438c0 4.653-3.791 8.439-8.45 8.439zM89.838 2.502v6.904c0 3.807 3.102 6.905 6.915 6.905 3.811 0 6.913-3.098 6.913-6.905V2.502H89.839z"/><path d="M100.594 6.082h-7.681v1.534h1.05l-.532 4.252h1.548l.533-4.252h2.483l.533 4.252h1.548l-.532-4.252h1.05V6.082zM9.674 3.504c4.533 0 6.95 2.112 6.95 5.13 0 2.413-1.813 4.224-4.23 4.888v.06c3.777.936 5.137 3.139 5.137 5.462 0 3.32-2.418 5.583-6.95 5.583H.61v-.603c1.814 0 1.814 0 1.814-1.962V6.068c0-1.961 0-1.961-1.814-1.961v-.604h9.065zM7.861 13.46c2.72 0 3.777-1.81 3.777-4.677 0-2.565-1.057-4.677-2.87-4.677h-1.51v9.354h.603zm-.604.604v9.959h2.115c2.417 0 3.173-2.415 3.173-5.13 0-2.716-1.36-4.829-4.08-4.829H7.258zm11.481 3.17c0-5.13 4.23-7.997 8.007-7.997 3.475 0 6.617 1.508 5.71 6.638h-8.943c0 4.074 2.326 5.583 4.593 5.583 2.72 0 3.928-1.509 4.533-2.565h.302c-.604 3.017-2.72 6.035-6.497 6.035-4.986 0-7.706-3.62-7.706-7.694zm4.774-1.962h4.442c.514-2.052.937-5.432-1.36-5.432-1.722 0-2.961 1.6-3.082 5.432zm21.815-1.811c0-1.357-.906-1.81-1.813-1.81-.936 0-1.964.453-3.021 1.358v9.052c0 1.962 0 1.962 1.813 1.962v.604h-8.461v-.604c1.813 0 1.813 0 1.813-1.962v-9.505c0-1.508 0-1.508-1.511-1.508v-.453l6.194-1.358h.242l-.09 3.168h.06c1.148-1.961 3.324-3.168 5.53-3.168 2.024 0 4.08 1.207 4.08 4.527v8.298c0 1.962 0 1.962 1.812 1.962v.604h-7.856v-.604c1.208 0 1.208 0 1.208-1.962v-8.6zm16.618 7.998c2.72 0 3.928-1.51 4.532-2.566h.303c-.605 3.018-2.72 6.035-6.497 6.035-4.986 0-7.705-3.62-7.705-7.694 0-5.13 4.23-7.997 8.007-7.997 3.777 0 5.772 1.84 5.772 3.772 0 1.056-.483 2.112-2.296 2.112-1.511 0-1.844-.935-1.814-1.569.152-2.203 0-3.712-1.813-3.712-2.114 0-3.082 2.807-3.082 6.307 0 3.954 2.327 5.312 4.593 5.312zm17.223-7.998c0-1.357-.907-1.81-1.814-1.81-.936 0-1.964.453-3.021 1.358v9.052c0 1.962 0 1.962 1.813 1.962v.604h-8.46v-.604c1.813 0 1.813 0 1.813-1.962V4.711c0-1.51 0-1.51-1.511-1.51V2.75l6.104-1.358h.241v11.014h.06c1.149-1.961 3.324-3.168 5.53-3.168 2.025 0 4.08 1.207 4.08 4.527v8.298c0 1.962 0 1.962 1.814 1.962v.604h-7.858v-.604c1.209 0 1.209 0 1.209-1.962v-8.6z"/></g><defs><clipPath id="clip0_2:256"><path fill="#fff" transform="translate(.61 .517)" d="M0 0h104.688v25H0z"/></clipPath></defs></svg>
